assets/Trackball/Flat/trackball_flat.svg

<svg width="32" height="32" viewBox="0 0 32 32" fill="none" xmlns="http://www.w3.org/2000/svg">
<path d="M20.31 2H11.69C9.1 2 7 4.1 7 6.69V25.31C7 27.9 9.1 30 11.69 30H20.31C22.9 30 25 27.9 25 25.31V6.69C25 4.1 22.9 2 20.31 2Z" fill="#635994"/>
<path d="M22.03 11C22.03 7.84 19.59 5.25 16.5 4.99V2H15.5V4.99C12.41 5.25 9.96997 7.84 9.96997 11C9.96997 14.16 12.41 16.75 15.5 17.01V18.75C15.5 19.03 15.72 19.25 16 19.25C16.28 19.25 16.5 19.03 16.5 18.75V17.01C19.59 16.75 22.03 14.16 22.03 11Z" fill="#433B6B"/>
<path d="M16 16.03C18.778 16.03 21.03 13.778 21.03 11C21.03 8.22198 18.778 5.96997 16 5.96997C13.222 5.96997 10.97 8.22198 10.97 11C10.97 13.778 13.222 16.03 16 16.03Z" fill="#CA0B4A"/>
<path d="M17.35 10.9999C18.2281 10.9999 18.94 10.2881 18.94 9.40995C18.94 8.53181 18.2281 7.81995 17.35 7.81995C16.4719 7.81995 15.76 8.53181 15.76 9.40995C15.76 10.2881 16.4719 10.9999 17.35 10.9999Z" fill="#FF8687"/>
</svg>

<svg xmlns="http://www.w3.org/2000/svg" width="32" height="32" fill="none"><path fill="#635994" d="M20.31 2h-8.62A4.69 4.69 0 0 0 7 6.69v18.62C7 27.9 9.1 30 11.69 30h8.62C22.9 30 25 27.9 25 25.31V6.69C25 4.1 22.9 2 20.31 2Z"/><path fill="#433B6B" d="M22.03 11c0-3.16-2.44-5.75-5.53-6.01V2h-1v2.99c-3.09.26-5.53 2.85-5.53 6.01 0 3.16 2.44 5.75 5.53 6.01v1.74c0 .28.22.5.5.5s.5-.22.5-.5v-1.74c3.09-.26 5.53-2.85 5.53-6.01Z"/><path fill="#CA0B4A" d="M16 16.03a5.03 5.03 0 1 0 0-10.06 5.03 5.03 0 0 0 0 10.06Z"/><path fill="#FF8687" d="M17.35 11a1.59 1.59 0 1 0 0-3.18 1.59 1.59 0 0 0 0 3.18Z"/></svg>
